svgs/duotone/mobile-notch.svg

<svg xmlns="http://www.w3.org/2000/svg" viewBox="0 0 384 512"><!--! Font Awesome Pro 6.1.1 by @fontawesome - https://fontawesome.com License - https://fontawesome.com/license (Commercial License) Copyright 2022 Fonticons, Inc. --><defs><style>.fa-secondary{opacity:.4}</style></defs><path class="fa-primary" d="M288 64h-32v16C256 88.84 248.8 96 240 96h-96C135.2 96 128 88.84 128 80V64H96C87.18 64 80 71.18 80 80v352C80 440.8 87.18 448 96 448h192c8.822 0 16-7.178 16-16v-352C304 71.18 296.8 64 288 64zM240 416h-96C135.2 416 128 408.8 128 400C128 391.2 135.2 384 144 384h96c8.838 0 16 7.162 16 16C256 408.8 248.8 416 240 416z"/><path class="fa-secondary" d="M288 0H96C51.82 0 16 35.82 16 80v352C16 476.2 51.82 512 96 512h192c44.18 0 80-35.82 80-80v-352C368 35.82 332.2 0 288 0zM304 432c0 8.822-7.178 16-16 16H96c-8.822 0-16-7.178-16-16v-352C80 71.18 87.18 64 96 64h32v16C128 88.84 135.2 96 144 96h96C248.8 96 256 88.84 256 80V64h32c8.822 0 16 7.178 16 16V432z"/></svg>

<svg xmlns="http://www.w3.org/2000/svg" viewBox="0 0 384 512"><!--! Font Awesome Pro 6.4.2 by @fontawesome - https://fontawesome.com License - https://fontawesome.com/license (Commercial License) Copyright 2023 Fonticons, Inc. --><path class="fa-primary" style="fill:var(--fa-primary-color,inherit);opacity:var(--fa-primary-opacity,1);" d="M128 64H96c-8.8 0-16 7.2-16 16V432c0 8.8 7.2 16 16 16H288c8.8 0 16-7.2 16-16V80c0-8.8-7.2-16-16-16H256V80c0 8.8-7.2 16-16 16H144c-8.8 0-16-7.2-16-16V64z"/><path class="fa-secondary" style="fill:var(--fa-secondary-color,inherit);opacity:var(--fa-secondary-opacity,.4);" d="M256 64V80c0 8.8-7.2 16-16 16H144c-8.8 0-16-7.2-16-16V64H96c-8.8 0-16 7.2-16 16V432c0 8.8 7.2 16 16 16H288c8.8 0 16-7.2 16-16V80c0-8.8-7.2-16-16-16H256zM16 80C16 35.8 51.8 0 96 0H288c44.2 0 80 35.8 80 80V432c0 44.2-35.8 80-80 80H96c-44.2 0-80-35.8-80-80V80z"/></svg>
